X: 25
T: LORD FROG AND LADY MOUSE
T: Cocky Mi Chari, She
B: "Old English Country Dances", Frank Kidson ed., William Reeves pub., London 1890
Z: 2010-9-26 John Chambers <jc:trillian.mit.edu>
M: 6/8
L: 1/8
K: Am
E |\
A2B cBA | B2c d2B | cBA c2d | ede E2E |
A2B c2A | B2c d2B | cBA c2d | e3- e2 :|
|: e |\
e2f g2f | edc f2c | B2c d2B | BcA ^G2G |
A2a agf | edc f2e | edc cBA | A3-  A2 :|


%%sep 1 1 500

%%sep 1 1 500

